X: 22
M: C|
L: 1/8
K: G
|:"G"G2DB, G,B,DB, | "C"CDEF "Am"G2FE | "G"D2GA "Em"BGdB | "Am"ABAG "D7"FDEF  |
| "G"G2DB, G,B,DB, | "C"CDEF "Am"G2FE | "G"D2GB "D7"ADFA |1 "G"G4   GD"D7"EF :|2 "G"G4 GD"D7"GA ||
[|"G"BDDB  DDBD    | "C"cEEc "Am"EEcE | "G"BDDB     DDBD | "Am"ABAG "D7"FDGA  |
| "G"BDDB  DDBD    | "C"cEEc "Am"EEcE | "G"BAGB "D7"AGFA |  "G"G4   GD"D7"GA |]
[|"G"BDDB  dDBD    | "C"cEEc "Am"eEcE | "G"BDDB     dDBD | "Am"ABAG "D7"FDEF  |
| "G"G2DB, G,B,DB, | "C"CDEF "Am"G2FE | "G"D2GB "D7"ADFA |  "G"G2G2     G4   |]


